24x24/actions/node.svg

<svg viewBox="0 0 24 24" xmlns="http://www.w3.org/2000/svg"><path d="m7 4-.094.094-2.906 2.906v13h12.969l.031-.031 2.906-2.907.063-.062.031-.031v-12.969zm1 1h10.313l-1.938 1.938-.063.062h-8.312zm-1 .375v1.625h-1.625zm12 .313v10.312h-2v-8.313l.063-.062 1.937-1.938zm-14 2.312h2v8.281l-.344.375-1.656 1.657zm3 0h8v8h-8zm-.281 9h8.281v2h-10.313l1.657-1.656zm9.281 0h1.594l-1.594 1.594z" fill="#8b9cbe"/></svg>

<svg xmlns="http://www.w3.org/2000/svg" viewBox="0 0 24 24"><path style="fill:currentColor;fill-opacity:1;stroke:none;color:#8b9cbe" d="m7 4-.094.094L4 7v13h12.969l.031-.031 2.906-2.907.063-.062.031-.031V4H7zm1 1h10.313l-1.938 1.938-.063.062H8V5zm-1 .375V7H5.375L7 5.375zm12 .313V16h-2V7.687l.063-.062L19 5.687zM5 8h2v8.281l-.344.375L5 18.313V8zm3 0h8v8H8V8zm-.281 9H16v2H5.687l1.657-1.656.375-.344zM17 17h1.594L17 18.594V17z"/></svg>
